!!!!SEGMENT: pl-kc--40102-iii-1-saf--001-018_zielenski-mikolaj--offertoria-totius-anni-feria-tertia-paschae-intonuit-de-coelo.krn
!!!cenid: 16xx:1496
!!!COM: Zieleński, Mikołaj
!!!COM-rismID: pe30013481
!!!CDT: <1611->1611
!!!CNT: Polish
!!!GTL: Offertoria totius anni
!!!OTL: Feria Tertia Paschae/Intonuit de coelo
!!!OMV: 018
!!!PDT: 1611
!!!AGN:
!!!YEC: Copyright 2022 Narodowy Instytut Fryderyka Chopina (https://polishscores.org)
!!!YEM: License CC-BY-4.0 (https://creativecommons.org/licenses/by/4.0)
!!!SMS-siglum: PL-Kc
!!!SMS-shelfmark: 40102 III/1 Saf.
!!!SMS-shelfwork: 001-018 G
!!!SMS-variant:
!!!SMS-altvar:
!!!NIFC-rismSourceID: 990069886
!!!NIFC-rismChildID: 990069886
!!!NIFC-islandoraID: none
!!!URL-pdf-islandora:
!!!URL-scan: https://cyfrowe.mnk.pl/dlibra/publication/24235/edition/23926/content?ref=desc @EN{Scan on The National Museum in Krakow Website} @PL{Skany w portalu Biblioteka Cyfrowa Muzeum Narodowego w Krakowie}
!!!IIIF:
!!!ONB-nifc: UWAGA: str. 17-18. Uwaga: W xml metrum 2/1 do źródłowego C| i odpowiednio 3/1 do 3/2
!!!AIN: 4 organ
!!!key:
**kern	**kern	**kern	**kern
*group1	*group1	*group1	*group1
*part4	*part3	*part2	*part1
*staff4	*staff3	*staff2	*staff1
*I""Organo	*I""Organo	*I""Organo	*I""Organo
*I''org	*I''org	*I''org	*I''org
*Iorgan	*Iorgan	*Iorgan	*Iorgan
*ICklav	*ICklav	*ICklav	*ICklav
*clefF4	*clefC3	*clefF3	*clefG2
*k[b-]	*k[b-]	*k[b-]	*k[b-]
*F:	*F:	*F:	*F:
*M2/1	*M2/1	*M2/1	*M2/1
*met(c|)	*met(c|)	*met(c|)	*met(c|)
=1	=1	=1	=1
!	!	!LO:TX:b:t=INTONVIT DE Coelo&colon;	!
!	!	!LO:TX:t=P:problem=zdwojony znak przykluczowy	!LO:TX:a:t=Feria Tertia Paſchae. A 8.
00r	00r	2F/	2cc\
.	.	4.B-\	4.dd\
.	.	8B-\	8dd\
.	.	4F/	4cc\
.	.	2B-\	2b-/
.	.	4c\	4g/
=2-	=2-	=2-	=2-
.	.	2.F/	2a/
.	.	.	2a/
.	.	4E/	.
.	.	2D/	2.ff\
.	.	2B-\	.
.	.	.	4ee\
=3	=3	=3	=3
0r	0r	2B-\	2dd\
.	.	2A\	2cc\
.	.	2G\	2b-/
.	.	2G\	2b-/
=4-	=4-	=4-	=4-
2r	2r	1F	1a
2FF/	2f\	.	.
4.C/	4.e\	1r	1r
8C/	8e\	.	.
4AA/	4f\	.	.
[>4BB-/	[4d\	.	.
=5	=5	=5	=5
4BB-/]	4d\]	00r	00r
4GG/	4e\	.	.
4FF/	1f	.	.
4FF/	.	.	.
2.F\	.	.	.
.	2c/	.	.
4E\	.	.	.
=6-	=6-	=6-	=6-
2.D/	1.f	.	.
4C/	.	.	.
2BB-/	.	.	.
2C/	2e\	.	.
=7	=7	=7	=7
2G\	2.d\	1r	1r
2GG/	.	.	.
.	4d\	.	.
1C	1e	2r	2r
.	.	2c\	2cc\
=8-	=8-	=8-	=8-
2r	2r	4.B-\	4.dd\
.	.	8B-\	8dd\
2FF/	2f\	2F/	2cc\
4.C/	4.e\	2r	2r
8C/	8e\	.	.
2GG/	2d\	2G\	2dd\
=9	=9	=9	=9
1r	1r	4.D/	4.ff\
.	.	8D/	8ff\
.	.	2A\	2ee\
2FF/	2f\	2F/	2ff\
4.C/	4.c/	4.G\	4.ee\
8C/	8c/	8G\	8ee\
=10-	=10-	=10-	=10-
4C/	2g\	4C/	4ee\
4GG/	.	4D/	4gg\
2GG/	2r	2D/	2gg\
2D/	[y1f	2D/	2ff\
4BB-/	.	4D/	4ff\
4BB-/	.	4F/	4ff\
=11	=11	=11	=11
!	!LO:N:vis=xstem:cue	!	!
2F\	2f\]	2F/	2ff\
4FF/	2c/	4F/	4ff\
4FF/	.	4F/	4cc\
2.C/	2.e\	2.E/	2cc\
.	.	.	1ee
4BB-/	4e\	4D/	.
=12-	=12-	=12-	=12-
2AA/	2e\	2C/	.
2FF/	2A/	2C/	2.ff\
2C/	2c/	2C/	.
.	.	.	8ee\
.	.	.	8dd\
2C/	2c/	2C/	2ee\
=13	=13	=13	=13
0FF	0c	1F	2ff\
.	.	.	1cc
.	.	2r	.
.	.	1F	2cc\
=14-	=14-	=14-	=14-
0r	0r	.	2.ff\
.	.	2F/	.
.	.	.	4ff\
.	.	2.B-\	2dd\
.	.	.	[y2gg\
.	.	4B-\	.
=15	=15	=15	=15
!	!	!	!LO:N:xstem:cue
00r	00r	2E/	4gg\]
.	.	.	4ff\
.	.	2.c\	4ee\
.	.	.	4dd\
.	.	.	2ee\
.	.	4B-\	.
.	.	4A\	1cc
.	.	4G\	.
=16-	=16-	=16-	=16-
.	.	2F/	.
.	.	1D	2.ff\
.	.	.	4ee\
.	.	[y2B-\	4dd\
.	.	.	4cc\
*custos:C	*custos:c	*custos:A	*custos:dd
!!LO:LB:g=original
=17	=17	=17	=17
!	!	!LO:N:xstem:cue	!
00r	00r	4B-\]	1dd
.	.	4A\	.
.	.	4G\	.
.	.	4F\	.
.	.	2E-X/	2g/
.	.	2C/	2.ee-X\
=18-	=18-	=18-	=18-
.	.	2.E-X/	.
.	.	.	4dd\
.	.	.	2.cc\
.	.	4F/	.
.	.	1G	.
.	.	.	8a#X/
.	.	.	8a#/
.	.	.	2b-/
=19	=19	=19	=19
2r	1r	0C	0cc
1C	.	.	.
.	2r	.	.
2C/	1c	.	.
=20-	=20-	=20-	=20-
2F\	.	0r	0r
1FF	2c/	.	.
.	2.f\	.	.
2FF/	.	.	.
.	4f\	.	.
=21	=21	=21	=21
2.BB-/	2d\	00r	00r
.	2.g\	.	.
4BB-/	.	.	.
2GG/	.	.	.
.	4f\	.	.
2.C/	4e\	.	.
.	4d\	.	.
=22-	=22-	=22-	=22-
.	2e\	.	.
4BB-/	.	.	.
4AA/	2e\	.	.
4GG/	.	.	.
2FF/	2a\	.	.
2C/	[y2g\	.	.
=23	=23	=23	=23
!	!LO:N:xstem:cue	!	!
2BB-/	4g\]	0r	0r
.	4f\	.	.
2FF/	2.f\	.	.
1C	.	.	.
.	8e\	.	.
.	8d\	.	.
.	2e\	.	.
=24-	=24-	=24-	=24-
1FF	1f	2r	2r
.	.	1F	1cc
2r	2r	.	.
[>2FF/	[2f\	2F/	2cc\
=25	=25	=25	=25
2FF/]	2f\]	2.F/	2.ff\
2FF/	2c/	.	.
.	.	4F/	4ff\
2.C/	2.c/	1G	2ee\
.	.	.	1gg
4C/	4c/	.	.
=26-	=26-	=26-	=26-
1GG	2g\	1G	.
.	1d	.	1dd
2.D/	.	[y1D	.
.	2d\	.	[y2ff\
4C/	.	.	.
=27	=27	=27	=27
!	!	!LO:N:vis=xstem:cue	!LO:N:xstem:cue
2BB-/	1d	2D/]	4ff\]
.	.	.	4ee\
2BB-/	.	2D/	4dd\
.	.	.	4cc\
2.E-X\	1e-X	0G	4b-/
.	.	.	4g/
.	.	.	1ee
4D/	.	.	.
=28-	=28-	=28-	=28-
2C/	2r	.	.
!LO:N:acc=#	!	!	!
2BBn/	2d\	.	1dd
1C	1G	[1G	.
.	.	.	4cc\
.	.	.	4b-/
=29	=29	=29	=29
1C	1c	1G]	2cc\
.	.	.	2cc\
!	!LO:N:acc=#	!	!
1GG	1Bn	2G\	2dd\
.	.	1G	1dd
=30-	=30-	=30-	=30-
0r	0r	.	.
.	.	2.D/	2.ff\
.	.	4D/	4ff\
.	.	2D/	2ff\
=31	=31	=31	=31
00r	00r	1A	1ee
.	.	2.D/	2.dd\
.	.	2G\	2dd\
=32-	=32-	=32-	=32-
.	.	.	.
.	.	2D/	2ff\
.	.	4G\	4dd\
.	.	4.C/	2ee-X\
.	.	8D/	.
.	.	4E-X/	4ee-\
.	.	4BB-/	4dd\
=33	=33	=33	=33
1r	1r	1F	1cc
2r	2r	1BB-	1dd
1BB-	1d	.	.
=34-	=34-	=34-	=34-
.	.	0r	0r
2.FF/	2.f\	.	.
4FF/	4f\	.	.
2FF/	2f\	.	.
=35	=35	=35	=35
2C/	2e\	00r	00r
4C/	4e\	.	.
2GG/	2g\	.	.
2BB-/	2d\	.	.
4FF/	4f\	.	.
=36-	=36-	=36-	=36-
2C/	2e\	.	.
4C/	4e\	.	.
4GG/	2g\	.	.
1AA	.	.	.
.	4f\	.	.
.	2e\	.	.
=37	=37	=37	=37
1D	2f#X\	2r	2r
.	2r	4r	4r
.	.	2d\	2a/
1r	1r	.	.
.	.	4.B-\	4.dd\
.	.	8B-\	8dd\
.	.	4F/	4cc\
=38-	=38-	=38-	=38-
2r	2r	2G\	2b-/
4r	4r	2d\	2a/
2D/	2d\	.	.
.	.	1r	1r
4.BB-/	4.fny\	.	.
8BB-/	8f\	.	.
4C/	4e-X\	.	.
=39	=39	=39	=39
2D/	2d\	2r	2r
2GG/	2d\	4r	4r
.	.	2G\	2dd\
1r	1r	.	.
.	.	4.D/	4.ff\
.	.	8D/	8ff\
.	.	4BB-/	4dd\
=40-	=40-	=40-	=40-
2r	2r	2F/	2cc\
4r	4r	4BB-/	4dd\
2BB-/	2d\	2F/	2dd\
4.FF/	4.A/	4.F/	4.ff\
8FF/	8c/	8F/	8ff\
4C/	4G/	4G\	4ee\
=41	=41	=41	=41
2GG/	2d\	2G\	2gg\
4D/	4d\	4A\	4ff\
2BB-/	2f\	2B-\	2ff\
2F\	4.f\	2c\	2ff\
.	8c\	.	.
4C/	8e\	4c\	4ee\
.	8f\	.	.
=42-	=42-	=42-	=42-
2G\	1g	1d	1dd
2GG/	.	.	.
1C	1g	2c\	2ee\
!	!	!	!LO:TX:t=P:problem=brak początku ligatury
.	.	2c\	[<2cc\
*custos:F	*custos:c	*custos:c	*custos:cc
!!LO:PB:g=original
=43	=43	=43	=43
2.F\	1c	4c\	2cc\]
.	.	4B-\	.
.	.	4A\	2.ff\
4E\	.	4G\	.
2.D/	1.d	4A\	.
.	.	4G\	4ee\
.	.	4F/	1dd
4C/	.	4E/	.
=44-	=44-	=44-	=44-
2BB-/	.	1F	.
2FF/	2f\	.	2cc\
[>1C	[1c	2G\	[<1cc
.	.	2F/	.
=45	=45	=45	=45
1C]	1c]	1G	1cc]
1FF	1A	2F/	2cc\
.	.	4F/	4cc\
.	.	4F/	4cc\
=46-	=46-	=46-	=46-
0r	0r	2D/	2ff\
.	.	4G\	4dd\
.	.	2E-X/	2gg\
.	.	4C/	4ee-X\
.	.	2G\	2dd\
=47	=47	=47	=47
2r	2r	1C	1cc
4C/	4g\	.	.
4C/	4g\	.	.
2AA/	2a\	0r	0r
4D/	4f\	.	.
2BB-/	4.f\	.	.
=48-	=48-	=48-	=48-
.	.	.	.
.	8d\	.	.
4GG/	2g\	.	.
2D/	.	.	.
.	4f#X\	.	.
1GG	1g	2r	2r
.	.	4G\	4dd\
.	.	4G\	4dd\
=49	=49	=49	=49
0r	0r	2D/	2ff\
.	.	4A\	4ee\
.	.	2F/	4.a/
.	.	.	8a/
.	.	4D/	2dd\
.	.	2A\	.
.	.	.	4cc#X\
=50-	=50-	=50-	=50-
2r	2r	1D	1dd
4D/	4f\	.	.
4D/	4f\	.	.
2D/	2f\	1r	1r
4BB-/	4d\	.	.
[4E\	[4g\	.	.
=51	=51	=51	=51
4E\]	4g\]	1r	1r
4D/	4f\	.	.
2C/	2e-X\	.	.
1BB-	1d	2r	2r
.	.	4B-\	4dd\
.	.	4B-\	4dd\
=52-	=52-	=52-	=52-
2r	2r	2F/	2ff\
4C/	4eny\	2G\	2ee\
4C/	4e\	.	.
2GG/	2g\	2r	2r
2D/	2f\	4D/	4dd\
.	.	4D/	4dd\
=53	=53	=53	=53
2r	2r	2G\	2b-/
4FF/	4f\	2F/	2cc\
4FF/	4f\	.	.
2C/	2e\	2r	2r
2FF/	2f\	4F/	4ff\
.	.	4F/	4ff\
=54-	=54-	=54-	=54-
2r	2r	2c\	2dd\
4FF/	4f\	2F/	2ff\
4FF/	4f\	.	.
2C/	2e\	2r	2r
2GG/	2d\	4G\	4gg\
.	.	4G\	4gg\
=55	=55	=55	=55
4D/	4d\	2D/	2ff\
4D/	4d\	.	.
2BB-/	4d\	1F	1ff
.	8c/	.	.
.	8B-/	.	.
2F\	2c/	.	.
4C/	4c/	4G\	4ee\
4C/	4g\	4G\	4ee\
=56-	=56-	=56-	=56-
2GG/	2g\	2G\	2gg\
4D/	4a\	4A\	4ff\
2BB-/	2d\	2B-\	2ff\
4BB-/	4f\	4B-\	4dd\
2F\	2f\	2c\	2cc\
=57	=57	=57	=57
4BB-/	4f\	4B-\	4dd\
2BB-/	2f\	2F/	2dd\
4FF/	4f\	4F/	4cc\
2C/	2c/	2G\	2cc\
4FF/	4f\	4F/	4cc\
2BB-/	2f\	2F/	2dd\
=58-	=58-	=58-	=58-
.	.	.	.
4FF/	4f\	4F/	4cc\
2C/	2c/	2G\	2cc\
2FF/	2f\	2F/	2cc\
[>2BB-/	2d\	2F/	[y2dd\
=59	=59	=59	=59
!	!	!	!LO:N:xstem:cue
2BB-/]	2d\	2F/	4dd\]
.	.	.	4ee\
2FF/	2.c/	2F/	4ff\
.	.	.	4dd\
1C	.	2G\	2ee\
.	4d\	.	.
.	4e\	2G\	2gg\
.	4d\	.	.
=60-	=60-	=60-	=60-
0C	4c/	1A	4gg\
.	4A/	.	4ff\
.	2c/	.	2.ff\
.	1c	1G	.
.	.	.	8ee\
.	.	.	8dd\
.	.	.	2ee\
=61-	=61-	=61-	=61-
0FFl	0cl	0Fl	0ffl
==	==	==	==
*-	*-	*-	*-
!!!system-decoration: *
!!!RDF**kern: > = above
!!!RDF**kern: < = below
!!!RDF**kern: l = terminal long
!!!ENC: Filip Voros
!!!END: 2021-12-11
!!!ENC: Marta Lawrence
!!!END: 2021-12-19
